svg/linux.svg

<svg viewBox="0 0 20 20" xmlns="http://www.w3.org/2000/svg">
<rect width="100%" height="100%" fill="#292929"/>
<path d="M14.3231 9.69662C14.6731 9.87162 15.0231 9.95912 15.4606 10.1341C15.5481 10.2216 15.7231 10.2216 15.8106 10.0466V9.95912C16.0731 9.52162 16.4231 9.08412 16.6856 8.55912C17.2106 7.68412 17.2981 6.63412 17.0356 5.67162C16.8606 4.53412 15.9856 3.48412 14.8481 3.13412C13.7981 2.78412 12.5731 3.13412 11.8731 4.00912C10.9106 5.14662 10.4731 6.63412 10.7356 8.03412C10.7356 8.12162 10.7356 8.12162 10.8231 8.20912L12.0481 8.64662C11.6981 7.77162 11.8731 6.72162 12.4856 6.02162C13.0106 5.32162 13.9731 5.14662 14.6731 5.58412C15.0231 5.75912 15.1981 6.10912 15.2856 6.45912C15.6356 7.77162 15.2856 9.08412 14.3231 9.69662ZM6.71064 8.64662C6.79814 8.55912 7.06064 8.55912 7.23564 8.47162C7.32314 8.38412 7.41064 8.38412 7.41064 8.29662C7.58564 6.98412 7.23564 5.67162 6.44814 4.62162C6.18564 4.18412 5.66064 3.92162 5.13564 3.92162C4.17314 3.83412 3.38564 4.44662 3.21064 5.40912C2.77314 6.98412 3.12314 8.64662 4.08564 9.95912L4.34814 10.2216L4.96064 9.78412C4.52314 9.52162 4.26064 9.17162 4.08564 8.73412C3.73564 7.94662 3.82314 7.07162 4.26064 6.37162C4.52314 5.84662 5.13564 5.67162 5.57314 5.93412C5.66064 6.02162 5.74814 6.02162 5.83564 6.19662C6.09814 6.45912 6.36064 6.80912 6.44814 7.24662C6.62314 7.59662 6.71064 8.12162 6.71064 8.64662Z" fill="white"/>
<path d="M3.99788 13.9841C4.69788 14.3341 5.39788 14.7716 6.09788 15.0341C7.67288 15.6466 9.42288 15.6466 10.9104 15.0341C12.0479 14.5966 13.1854 13.9841 14.2354 13.2841L15.6354 12.3216L15.8979 12.1466C15.6354 11.8841 15.2854 11.8841 15.0229 12.1466C14.3229 12.6716 13.5354 13.1966 12.8354 13.7216C11.7854 14.4216 10.5604 14.8591 9.33538 15.0341C7.84788 15.2091 6.36038 14.9466 5.04788 14.1591C4.52288 13.8966 3.99788 13.5466 3.38538 13.2841C3.21038 13.1966 3.03538 13.0216 3.12288 12.8466C3.12288 12.4966 3.29788 12.2341 3.38538 11.8841C3.64788 11.4466 3.99788 11.0091 4.43538 10.6591C5.31038 10.0466 6.18538 9.43412 7.14788 8.90912C8.28538 8.38412 9.51038 8.29662 10.7354 8.73412C12.3104 9.34662 13.8854 9.87162 15.5479 10.4841C15.8104 10.5716 16.0729 10.6591 16.2479 10.8341C16.6854 11.0091 17.0354 11.5341 16.9479 12.0591C16.9479 12.4091 16.8604 12.7591 16.7729 13.1091C16.6854 13.3716 16.5104 13.5466 16.3354 13.7216C15.4604 14.3341 14.5854 14.9466 13.7104 15.6466C12.6604 16.5216 11.5229 17.1341 10.2104 17.3966C8.54788 17.8341 6.79788 17.2216 5.66038 15.8216C5.13538 15.2091 4.52288 14.5966 3.99788 13.9841ZM9.24788 9.34662C9.59788 9.52162 9.86038 9.69662 10.2104 9.78412H10.5604C10.5604 9.69662 10.5604 9.52162 10.4729 9.43412C10.1229 9.17162 9.77288 9.17162 9.24788 9.34662ZM7.93538 9.34662C7.58538 9.17162 7.23538 9.25912 6.97288 9.52162V9.87162H7.23538C7.49788 9.69662 7.76038 9.52162 7.93538 9.34662Z" fill="#FAC424"/>
</svg>

<svg xmlns="http://www.w3.org/2000/svg" viewBox="0 0 20 20">
  <rect width="100%" height="100%" fill="#292929"/>
  <path fill="#fff" d="M14.32 9.7c.35.17.7.26 1.14.43.09.1.26.1.35-.08v-.1c.26-.43.61-.87.88-1.4a3.7 3.7 0 0 0 .35-2.88 3.24 3.24 0 0 0-2.2-2.54 2.75 2.75 0 0 0-2.97.88 4.9 4.9 0 0 0-1.13 4.02c0 .1 0 .1.08.18l1.23.44a2.6 2.6 0 0 1 .44-2.63c.52-.7 1.48-.87 2.18-.44.35.18.53.53.62.88.35 1.31 0 2.62-.97 3.24Zm-7.6-1.05c.08-.1.34-.1.52-.18.08-.09.17-.09.17-.17a5 5 0 0 0-.96-3.68c-.26-.44-.79-.7-1.31-.7A1.75 1.75 0 0 0 3.2 5.41a5.3 5.3 0 0 0 .88 4.55l.26.26.61-.44c-.44-.26-.7-.6-.87-1.05a2.51 2.51 0 0 1 .17-2.36c.26-.52.88-.7 1.31-.44.1.1.18.1.27.27.26.26.52.6.6 1.05.18.35.27.87.27 1.4Z"/>
  <path fill="#FAC424" d="M4 13.98c.7.35 1.4.8 2.1 1.05 1.57.62 3.32.62 4.81 0a17.29 17.29 0 0 0 3.33-1.75l1.4-.96.26-.17c-.26-.27-.61-.27-.88 0-.7.52-1.48 1.05-2.18 1.57a8.53 8.53 0 0 1-3.5 1.31 6.7 6.7 0 0 1-4.3-.87c-.52-.26-1.04-.61-1.65-.88-.18-.08-.35-.26-.27-.43 0-.35.18-.62.27-.97a4.6 4.6 0 0 1 1.05-1.22c.87-.61 1.75-1.23 2.7-1.75a4.63 4.63 0 0 1 3.6-.18c1.57.62 3.15 1.14 4.8 1.75.27.1.53.18.7.35.45.18.8.7.7 1.23 0 .35-.08.7-.17 1.05-.08.26-.26.44-.43.61-.88.61-1.75 1.23-2.63 1.93a7.8 7.8 0 0 1-3.5 1.75 4.4 4.4 0 0 1-4.55-1.58c-.52-.61-1.14-1.22-1.66-1.84Zm5.25-4.63c.35.17.61.35.96.43h.35c0-.08 0-.26-.09-.35-.35-.26-.7-.26-1.22-.08Zm-1.31 0c-.35-.18-.7-.1-.97.17v.35h.27c.26-.17.52-.35.7-.52Z"/>
</svg>
